X: 74
T: MAXWELL'S
%R: reel
B: Jean White "100 Popular Hornpipes, Reels, Jigs and Country Dances", Boston 1880 p.31
F: http://www.loc.gov/resource/sm1880.09124.0#seq-1
Z: 2014 John Chambers <jc:trillian.mit.edu>
M: C|
L: 1/8
K: G
% - - - - - - - - - - - - - - - - - - - - - - - - - - - - -
|:\
g2ba g2fe | abag fd de/f/ |\
gfe2 d2cB | cAdc BGGd |
gbab gafg | eaag fd de/f/ |\
gbfa egd=f | ecAd BG G H|]
B/c/ |\
dBdg dg dB/c/ | dBGB cA AB/c/ |\
dBGB dgdB | cABG FA AB/c/ |
dBdg dg dB/c/ | dBGB cA AB/c/ |\
dgfe dbag | faef def"_D.C."d |]
% - - - - - - - - - - - - - - - - - - - - - - - - - - - - -

%%sep 1 1 500
%%sep 1 1 500
